static/assets/svg/human/humanClothes/shoes/shoes11.svg

<svg class="shoes" width="86" height="380" viewBox="202.715 584.407 86.593 380.048" xmlns="http://www.w3.org/2000/svg"><defs><linearGradient id="a" gradientUnits="userSpaceOnUse" x1="267.579" y1="958.364" x2="267.579" y2="964.455" gradientTransform="matrix(.08173 -.99667 6.09951 .50003 -5616.895 744.02)"><stop offset="0" stop-color="#0cff00"/><stop offset=".401" stop-color="#97006a"/><stop offset="1" stop-color="red"/></linearGradient><linearGradient id="b" gradientUnits="userSpaceOnUse" x1="223.73" y1="891.95" x2="223.73" y2="940.2"><stop offset="0" stop-color="#dfae5a"/><stop offset=".266" stop-color="#4bd256"/><stop offset=".557" stop-color="#4251b1"/><stop offset="1" stop-color="#b17d22"/></linearGradient><linearGradient id="c" gradientUnits="userSpaceOnUse" x1="223.812" y1="888.535" x2="223.812" y2="944.039"><stop offset="0" stop-color="red"/><stop offset="1" stop-color="#fff300"/></linearGradient><linearGradient id="d" gradientUnits="userSpaceOnUse" x1="265.143" y1="890.401" x2="265.143" y2="941.828"><stop offset="0" stop-color="#5adf5e"/><stop offset=".282" stop-color="#e02323"/><stop offset=".437" stop-color="#4c23e0"/><stop offset=".639" stop-color="#ff7f00"/><stop offset=".887" stop-color="#4ee51e"/><stop offset="1" stop-color="#08ff00"/></linearGradient><linearGradient id="e" gradientUnits="userSpaceOnUse" x1="268.106" y1="886.151" x2="268.106" y2="945.309" gradientTransform="matrix(.9998 -.02038 .0206 1.0103 -18.19 -3.66)"><stop offset="0" stop-color="#dfae5a"/><stop offset=".197" stop-color="#08f2fe"/><stop offset=".556" stop-color="#f14bc0"/><stop offset=".556" stop-color="#f243c8"/><stop offset=".557" stop-color="#f243c8"/><stop offset=".587" stop-color="#f3ed3b"/><stop offset=".74" stop-color="#f438d4"/><stop offset=".821" stop-color="#2c11fb"/><stop offset="1" stop-color="#ffa200"/></linearGradient><linearGradient id="f" gradientUnits="userSpaceOnUse" x1="267.579" y1="958.364" x2="267.579" y2="964.455" gradientTransform="matrix(.08173 -.99667 6.09951 .50004 -5663.488 744.62)"><stop offset="0" stop-color="#0cff00"/><stop offset=".401" stop-color="#97006a"/><stop offset="1" stop-color="red"/></linearGradient></defs><g stroke="#000"><path fill="url(#a)" d="M251.439 957.755h35.934v6.091h-35.934z"/><path d="M208.806 891.95c0 3.18 17.728 9.351 20.098 13.345 1.54 2.595-5.927.89-6.699 1.54-.565.476-21.116 9.409-19.49 10.779 4.243 3.576 29.71 9.128 34.716 13.347.933.786-17.235-.874-18.271 0-10.86 9.152-19.594 1.965-10.963 9.239.054.046 7.359-4.149 7.917-4.62.856-.721 28.625-5.133 28.625-5.133l-32.279-14.372s31.241-16.484 32.28-13.859c1.327 3.356-11.541-1.514-12.79-2.566-4.062-3.424-21.317-1.065-21.317-6.673" fill="url(#b)"/><path d="M230.731 940.714c-1.597-1.347-23.753-12.319-23.753-12.319l29.844-12.32s-14.002-6.927-15.835-7.699c-6.516-2.746-11.382-2.406-15.836-6.16-2.831-2.386 7.523-2.747 10.354-5.133 2.548-2.147 9.36-2.242 12.181-4.62.183-.154 3.499-5.264 5.482-3.593 3.738 3.151-10.663 8.6-13.399 9.753-1.763.743-6.701 3.594-6.7 3.593 3.444-2.903 27.78 11.607 29.843 13.345 1.344 1.133-26.375 9.91-28.625 11.807-1.06.893 15.314 8.286 15.835 8.725 3.216 2.711 3.046 10.363 3.046 7.187" fill="url(#c)"/><path d="M249.705 941.219c0-3.39 18.339-9.967 20.789-14.224 1.594-2.766-6.13-.949-6.929-1.641-.584-.508-21.842-10.029-20.159-11.489 4.388-3.812 30.731-9.729 35.91-14.226.964-.838-17.829.932-18.9 0-11.233-9.754-20.267-2.094-11.34-9.847.055-.049 7.612 4.422 8.189 4.924.886.768 29.609 5.471 29.609 5.471l-33.388 15.318s32.315 17.57 33.389 14.772c1.373-3.577-11.938 1.613-13.23 2.735-4.201 3.649-22.049 1.135-22.049 7.112" transform="rotate(180 265.143 915.505)" fill="url(#d)"/><path d="M275.733 889.695c-1.761 1.435-26.186 13.13-26.186 13.13l32.901 13.131s-15.437 7.383-17.457 8.206c-7.183 2.927-12.548 2.564-17.458 6.565-3.121 2.544 8.294 2.928 11.415 5.471 2.808 2.289 10.318 2.39 13.428 4.925.201.164 3.857 5.61 6.043 3.829 4.121-3.358-11.755-9.166-14.771-10.395-1.944-.792-7.388-3.831-7.387-3.83 3.798 3.095 30.626-12.371 32.901-14.223 1.482-1.208-29.077-10.563-31.558-12.585-1.168-.951 16.883-8.831 17.457-9.299 3.546-2.889 3.358-11.045 3.358-7.66" transform="rotate(180 268.106 915.73)" fill="url(#e)"/><path fill="url(#f)" d="M204.847 958.364h35.934v6.091h-35.934z"/></g></svg>

<svg id="shoes11" class="shoes" width="86" height="380" viewBox="202.715 584.407 86.5933 380.048" preserveAspectRatio="xMidYMid meet" xmlns="http://www.w3.org/2000/svg">  <defs id="svgEditorDefs">    <path id="svgEditorClosePathDefs" class="skin" fill="moccasin" style="stroke-width: 0px; stroke: none; fill-opacity: 1;"/>    <pattern id="pattern-0" x="0" y="0" width="20" height="20" patternUnits="userSpaceOnUse" viewBox="0 0 100 100">      <path d="M 0 0 L 50 0 L 50 100 L 0 100 Z" style="fill: black;"/>      <rect x="49.199" y="-0.321" width="62.981" height="100.481" style="fill: rgb(173, 151, 115);"/>    </pattern>    <pattern id="pattern-2" x="0" y="0" width="20" height="20" patternUnits="userSpaceOnUse" viewBox="0 0 100 100">      <path d="M 0 0 L 50 0 L 50 100 L 0 100 Z" style="fill: black;"/>      <rect x="49.199" y="-0.321" width="62.981" height="100.481" style="fill: rgb(173, 151, 115);"/>    </pattern>    <linearGradient id="gradient-7" gradientUnits="userSpaceOnUse" x1="267.579" y1="958.364" x2="267.579" y2="964.455" gradientTransform="matrix(0.081728, -0.996673, 6.099511, 0.500025, -5616.895032, 744.019551)">      <stop offset="0" style="stop-color: rgb(12, 255, 0);"/>      <stop offset="0.401" style="stop-color: rgb(151, 0, 106);"/>      <stop offset="1" style="stop-color: rgb(255, 0, 0);"/>    </linearGradient>    <linearGradient id="gradient-8" gradientUnits="userSpaceOnUse" x1="223.73" y1="891.95" x2="223.73" y2="940.2">      <stop offset="0" style="stop-color: rgba(223, 174, 90, 1)"/>      <stop offset="0.266" style="stop-color: rgb(75, 210, 86);"/>      <stop offset="0.557" style="stop-color: rgb(66, 81, 177);"/>      <stop offset="1" style="stop-color: rgba(177, 125, 34, 1)"/>    </linearGradient>    <linearGradient id="gradient-9" gradientUnits="userSpaceOnUse" x1="223.812" y1="888.535" x2="223.812" y2="944.039">      <stop offset="0" style="stop-color: rgb(255, 0, 0);"/>      <stop offset="1" style="stop-color: rgb(255, 243, 0);"/>    </linearGradient>    <linearGradient id="gradient-10" gradientUnits="userSpaceOnUse" x1="265.143" y1="890.401" x2="265.143" y2="941.828">      <stop offset="0" style="stop-color: rgb(90, 223, 94);"/>      <stop offset="0.282" style="stop-color: rgb(224, 35, 35);"/>      <stop offset="0.437" style="stop-color: rgb(76, 35, 224);"/>      <stop offset="0.639" style="stop-color: rgb(255, 127, 0);"/>      <stop offset="0.887" style="stop-color: rgb(78, 229, 30);"/>      <stop offset="1" style="stop-color: rgb(8, 255, 0);"/>    </linearGradient>    <linearGradient id="gradient-11" gradientUnits="userSpaceOnUse" x1="268.106" y1="886.151" x2="268.106" y2="945.309" gradientTransform="matrix(0.999792, -0.020377, 0.020591, 1.010296, -18.190862, -3.660383)">      <stop offset="0" style="stop-color: rgba(223, 174, 90, 1)"/>      <stop offset="0.197" style="stop-color: rgb(8, 242, 254);"/>      <stop offset="0.556" style="stop-color: rgb(241, 75, 192);"/>      <stop offset="0.556" style="stop-color: rgb(242, 67, 200);"/>      <stop offset="0.557" style="stop-color: rgb(242, 67, 200);"/>      <stop offset="0.587" style="stop-color: rgb(243, 237, 59);"/>      <stop offset="0.74" style="stop-color: rgb(244, 56, 212);"/>      <stop offset="0.821" style="stop-color: rgb(44, 17, 251);"/>      <stop offset="1" style="stop-color: rgb(255, 162, 0);"/>    </linearGradient>    <linearGradient id="gradient-1" gradientUnits="userSpaceOnUse" x1="267.579" y1="958.364" x2="267.579" y2="964.455" gradientTransform="matrix(0.081728, -0.996673, 6.099511, 0.500035, -5663.487516, 744.619139)">      <stop offset="0" style="stop-color: rgb(12, 255, 0);"/>      <stop offset="0.401" style="stop-color: rgb(151, 0, 106);"/>      <stop offset="1" style="stop-color: rgb(255, 0, 0);"/>    </linearGradient>  </defs>  <g>    <rect x="251.439" y="957.755" width="35.934" height="6.091" style="stroke: rgb(0, 0, 0); fill: url(#gradient-7);"/>    <path d="M 208.806 891.95 C 208.806 895.13 226.534 901.301 228.904 905.295 C 230.444 907.89 222.977 906.185 222.205 906.835 C 221.64 907.311 201.089 916.244 202.715 917.614 C 206.958 921.19 232.425 926.742 237.431 930.961 C 238.364 931.747 220.196 930.087 219.16 930.961 C 208.3 940.113 199.566 932.926 208.197 940.2 C 208.251 940.246 215.556 936.051 216.114 935.58 C 216.97 934.859 244.739 930.447 244.739 930.447 C 244.739 930.447 212.46 916.075 212.46 916.075 C 212.46 916.075 243.701 899.591 244.74 902.216 C 246.067 905.572 233.199 900.702 231.95 899.65 C 227.888 896.226 210.633 898.585 210.633 892.977" style="stroke: rgb(0, 0, 0); fill: url(#gradient-8);"/>    <path d="M 230.731 940.714 C 229.134 939.367 206.978 928.395 206.978 928.395 C 206.978 928.395 236.822 916.075 236.822 916.075 C 236.822 916.075 222.82 909.148 220.987 908.376 C 214.471 905.63 209.605 905.97 205.151 902.216 C 202.32 899.83 212.674 899.469 215.505 897.083 C 218.053 894.936 224.865 894.841 227.686 892.463 C 227.869 892.309 231.185 887.199 233.168 888.87 C 236.906 892.021 222.505 897.47 219.769 898.623 C 218.006 899.366 213.068 902.217 213.069 902.216 C 216.513 899.313 240.849 913.823 242.912 915.561 C 244.256 916.694 216.537 925.471 214.287 927.368 C 213.227 928.261 229.601 935.654 230.122 936.093 C 233.338 938.804 233.168 946.456 233.168 943.28" style="stroke: rgb(0, 0, 0); fill: url(#gradient-9);"/>    <path d="M 249.705 941.219 C 249.705 937.829 268.044 931.252 270.494 926.995 C 272.088 924.229 264.364 926.046 263.565 925.354 C 262.981 924.846 241.723 915.325 243.406 913.865 C 247.794 910.053 274.137 904.136 279.316 899.639 C 280.28 898.801 261.487 900.571 260.416 899.639 C 249.183 889.885 240.149 897.545 249.076 889.792 C 249.131 889.743 256.688 894.214 257.265 894.716 C 258.151 895.484 286.874 900.187 286.874 900.187 C 286.874 900.187 253.486 915.505 253.486 915.505 C 253.486 915.505 285.801 933.075 286.875 930.277 C 288.248 926.7 274.937 931.89 273.645 933.012 C 269.444 936.661 251.596 934.147 251.596 940.124" style="stroke: rgb(0, 0, 0); fill: url(#gradient-10);" transform="matrix(-1, 0, 0, -1, 530.285404, 1831.010469)"/>    <path d="M 275.733 889.695 C 273.972 891.13 249.547 902.825 249.547 902.825 C 249.547 902.825 282.448 915.956 282.448 915.956 C 282.448 915.956 267.011 923.339 264.991 924.162 C 257.808 927.089 252.443 926.726 247.533 930.727 C 244.412 933.271 255.827 933.655 258.948 936.198 C 261.756 938.487 269.266 938.588 272.376 941.123 C 272.577 941.287 276.233 946.733 278.419 944.952 C 282.54 941.594 266.664 935.786 263.648 934.557 C 261.704 933.765 256.26 930.726 256.261 930.727 C 260.059 933.822 286.887 918.356 289.162 916.504 C 290.644 915.296 260.085 905.941 257.604 903.919 C 256.436 902.968 274.487 895.088 275.061 894.62 C 278.607 891.731 278.419 883.575 278.419 886.96" style="stroke: rgb(0, 0, 0); fill: url(#gradient-11);" transform="matrix(-1, 0, 0, -1, 536.212037, 1831.46079)"/>    <rect x="204.847" y="958.364" width="35.934" height="6.091" style="stroke: rgb(0, 0, 0); fill: url(#gradient-1);"/>  </g></svg>
